X: 1
T: Mutt's Favourite
C: Jerry Holland
R: reel
S: MS from Barbara McOwen in the Concord Slow Scottish collection
Z: 2017 John Chambers <jc:trillian.mit.edu>
M: C|
L: 1/8
K: Ador
G \
"A"|:\
"Am"EAAc B2Ac | "Am"BAAg feea |\
"Am"EAAc B2Ac | "G"BGGA BcdD ||\
"Am"EAAc B2Ac | "Am"BAAg feef |
"G"gfgd e2eg | "(Em)"BGBc dBGB "B"::\
"Am"EARA2 fARA2 | gARA2 aARA2 |\
"Am"EAfA "D"gAaA | "G"fgdg "(Em)"BGGD :|


